X: 321
T:Turnpike Side
% Nottingham Music Database
S:Trad, arr Phil Rowe
M:6/8
K:D
A|"D"d2d "A"c2A|"G"BdB "D"AGF|"G"G2e "D"F2d|"Em"E2d "A"cBc|
"D"d2d "A"c2A|"G"BdB "D"AGF|"Em"G2e "D"F2d|"A"cBc "D"d2::
A|"D"d2f a2b|afd a2f|"A"A2c e2f|ecA e2c|
"D"d2f a2b|"D"afd "Bm"a2f|"Em"gbg "D"faf|"A"edc "D"d2:|


